src/2-landmarks/vending-machine--default.svg

<svg width="1300" height="1000" fill="none" xmlns="http://www.w3.org/2000/svg"><path d="M1083 900h-7V222c0-8.284-6.72-15-15-15H674c-8.284 0-15 6.716-15 15v678h-7V220c0-11.046 8.954-20 20-20h391c11.05 0 20 8.954 20 20v680Z" fill="#000"/><path fill-rule="evenodd" clip-rule="evenodd" d="M1038 230c8.28 0 15 6.716 15 15v440c0 8.284-6.72 15-15 15H878c-8.284 0-15-6.716-15-15V245c0-8.284 6.716-15 15-15h160ZM870 593V247c0-5.523 4.477-10 10-10h156c5.52 0 10 4.477 10 10v346H870Zm176 7v83c0 5.523-4.48 10-10 10H880c-5.523 0-10-4.477-10-10v-83h176Z" fill="#000"/><path d="M768 394.5a3.5 3.5 0 0 0-3.5-3.5h-23a3.5 3.5 0 1 0 0 7h23a3.5 3.5 0 0 0 3.5-3.5Z" fill="#000"/><path fill-rule="evenodd" clip-rule="evenodd" d="M682 300.5c0 38.936 31.564 70.5 70.5 70.5s70.5-31.564 70.5-70.5-31.564-70.5-70.5-70.5-70.5 31.564-70.5 70.5Zm7 0c0 35.07 28.43 63.5 63.5 63.5s63.5-28.43 63.5-63.5-28.43-63.5-63.5-63.5-63.5 28.43-63.5 63.5Z" fill="#000"/><path d="M0 900h1300v100H0V900Z" fill="#000"/></svg>

<svg width="1300" height="1000" viewBox="0 0 1300 1000" fill="none" xmlns="http://www.w3.org/2000/svg">
<path d="M1083 900H1076V222C1076 213.716 1069.28 207 1061 207H674C665.716 207 659 213.716 659 222V900H652V220C652 208.954 660.954 200 672 200H1063C1074.05 200 1083 208.954 1083 220V900Z" fill="black"/>
<path fill-rule="evenodd" clip-rule="evenodd" d="M1038 230C1046.28 230 1053 236.716 1053 245V685C1053 693.284 1046.28 700 1038 700H878C869.716 700 863 693.284 863 685V245C863 236.716 869.716 230 878 230H1038ZM870 593V247C870 241.477 874.477 237 880 237H1036C1041.52 237 1046 241.477 1046 247V593H870ZM1046 600V683C1046 688.523 1041.52 693 1036 693H880C874.477 693 870 688.523 870 683V600H1046Z" fill="black"/>
<path d="M768 394.5C768 392.567 766.433 391 764.5 391H741.5C739.567 391 738 392.567 738 394.5C738 396.433 739.567 398 741.5 398H764.5C766.433 398 768 396.433 768 394.5Z" fill="black"/>
<path fill-rule="evenodd" clip-rule="evenodd" d="M682 300.5C682 339.436 713.564 371 752.5 371C791.436 371 823 339.436 823 300.5C823 261.564 791.436 230 752.5 230C713.564 230 682 261.564 682 300.5ZM689 300.5C689 335.57 717.43 364 752.5 364C787.57 364 816 335.57 816 300.5C816 265.43 787.57 237 752.5 237C717.43 237 689 265.43 689 300.5Z" fill="black"/>
<path d="M0 900H1300V1000H0V900Z" fill="black"/>
</svg>
